dist/images/logo.svg

<svg width="92" height="60" viewBox="0 0 92 60" fill="none" xmlns="http://www.w3.org/2000/svg">
<g clip-path="url(#clip0)">
<path d="M19.2737 25.249V31.0896C17.9708 28.5961 15.994 27.3382 13.3433 27.3382C10.6926 27.3382 9.36728 28.7983 9.36728 31.7185C9.36728 33.1787 9.7267 34.2344 10.4455 34.8859C11.1644 35.5373 12.31 35.8518 13.9049 35.8518C15.41 35.8518 16.6679 35.4924 17.6788 34.7736C18.6896 34.0547 19.1614 33.1787 19.1164 32.1453C19.1164 32.1004 19.1164 32.0555 19.094 31.9656C19.5208 32.325 19.7454 32.8417 19.7454 33.4931C19.7454 34.9982 19.1164 36.2112 17.8585 37.1547C16.6005 38.0982 14.9607 38.5474 12.8941 38.5474C10.5354 38.5474 8.51367 37.896 6.80644 36.6156C5.09922 35.3352 4.24561 33.8076 4.24561 32.033C4.24561 30.2359 5.09922 28.6186 6.80644 27.1809C8.51367 25.7432 10.468 25.0469 12.647 25.0469C14.5339 25.0469 16.1962 25.5635 17.6339 26.6193L19.2737 25.249Z" fill="#57689F"/>
<path d="M29.2475 25.0469C31.3815 25.0469 33.246 25.7432 34.8409 27.136C36.4134 28.5287 37.1996 30.191 37.1996 32.0779C37.1996 33.8301 36.4134 35.3576 34.8185 36.638C33.2236 37.9185 31.3366 38.5474 29.1577 38.5474C27.0012 38.5474 25.1142 37.896 23.4969 36.6156C21.8795 35.3127 21.0483 33.8301 21.0483 32.1229C21.0483 30.191 21.857 28.5287 23.4744 27.136C25.0918 25.7432 27.0236 25.0469 29.2475 25.0469ZM29.1352 27.2034C28.2591 27.2034 27.5403 27.6302 26.9787 28.4613C26.4171 29.3149 26.1476 30.3932 26.1476 31.7185C26.1476 33.0439 26.4171 34.0997 26.9562 34.9083C27.4954 35.717 28.2367 36.0989 29.1352 36.0989C30.0337 36.0989 30.775 35.6946 31.3142 34.9083C31.8533 34.1221 32.1228 33.0439 32.1228 31.7185C32.1228 30.3932 31.8533 29.3149 31.2917 28.4613C30.7301 27.6302 30.0113 27.2034 29.1352 27.2034Z" fill="#57689F"/>
<path d="M49.9811 25.4736L47.9594 27.7424L51.5086 35.0206L54.7209 37.9409H44.0283L46.971 35.38L46.5891 34.5264H41.7145L41.3326 35.38L43.8935 37.9409H35.9863L38.4798 35.0206L41.9616 27.7424L39.9848 25.4736H49.9811ZM44.0283 29.0903L42.5232 32.4598H45.6232L44.0283 29.0903Z" fill="#57689F"/>
<path d="M54.6763 25.4736H65.8182C67.0986 25.4736 68.087 25.6084 68.8058 25.878C69.5246 26.1475 70.2435 26.6193 70.9398 27.3381C72.2876 28.7084 72.9615 30.2359 72.9615 31.9206C72.9615 33.6953 72.2652 35.1554 70.8949 36.2786C69.5246 37.4017 67.7276 37.9633 65.5261 37.9633H54.6763L57.7762 35.088V28.4163L54.6763 25.4736ZM62.1566 35.4699H64.2457C65.7058 35.4699 66.6942 35.2452 67.166 34.7735C67.6377 34.3018 67.8848 33.3583 67.8848 31.9206C67.8848 29.0903 66.6942 27.6751 64.2906 27.6751H62.1566V35.4699Z" fill="#68696B"/>
<path d="M74.0845 25.4736H86.4394C87.7872 25.4736 88.8655 25.7657 89.7191 26.3722C90.5502 26.9787 90.977 27.7649 90.977 28.7308C90.977 30.146 89.7415 31.067 87.2481 31.4938C90.1459 32.033 91.606 33.1786 91.606 34.9083C91.606 36.93 89.8763 37.9409 86.4394 37.9409H74.1069L77.2069 35.088V28.3939L74.0845 25.4736ZM81.5648 30.3707H85.1141C86.08 30.3707 86.5517 29.9439 86.5517 29.0903C86.5517 28.1468 86.0575 27.6751 85.0916 27.6751H81.5873V30.3707H81.5648ZM81.5648 35.717H85.0691C86.2372 35.717 86.8213 35.2677 86.8213 34.3467C86.8213 33.3359 86.3945 32.8417 85.5184 32.8417H81.5873V35.717H81.5648Z" fill="#68696B"/>
<path d="M39.064 51.5537C43.8487 56.7653 47.3081 58.1355 53.8674 59.9775C52.6095 54.137 51.5312 48.6559 46.4545 45.0168C46.3197 45.1966 45.7356 45.8929 45.6008 46.0502C43.7813 48.1842 41.6023 50.0936 39.064 51.5537Z" fill="#57689F"/>
<path d="M13.0512 45.3538C13.0063 45.3313 12.9614 45.3313 12.9164 45.3088C8.17665 49.195 6.49188 54.3841 4.87451 59.9775C11.5686 58.0007 16.4881 55.687 20.5091 51.7334C17.6338 49.9812 15.2077 47.8247 13.0512 45.3538Z" fill="#57689F"/>
<path d="M16.7802 9.4796C18.3302 8.64845 19.6106 7.97454 21.1606 7.14339C19.8577 5.75065 18.6672 4.4927 17.3867 3.14489C12.7143 6.96368 12.7143 6.96368 12.7143 6.96368C10.5129 5.1666 8.28903 3.34706 8.17671 0C5.6608 1.61737 3.14489 3.25721 0 5.27892C4.64994 5.81805 5.99775 8.31149 7.77237 11.097C5.75066 11.973 3.97604 12.7593 2.08911 13.568C3.3246 14.8708 4.64994 16.2411 6.02022 17.6788C7.43542 16.6904 9.70423 14.7361 9.70423 14.7361C9.70423 14.7361 11.1644 15.8143 11.9281 16.3534C15.0505 15.5897 17.4991 14.4665 19.8577 13.4107C18.757 11.9955 17.8136 10.8049 16.7802 9.4796Z" fill="#57689F"/>
<path d="M41.9619 9.4796C40.4119 8.64845 39.1315 7.97454 37.5815 7.14339C38.8844 5.75065 40.0975 4.4927 41.3779 3.14489C46.0503 6.96368 46.0503 6.96368 46.0503 6.96368C48.2517 5.1666 50.4756 3.34706 50.5879 0C53.1038 1.61737 55.6197 3.25721 58.7422 5.27892C54.1147 5.81805 52.7669 8.31149 50.9923 11.097C53.014 11.973 54.7886 12.7593 56.6755 13.568C55.44 14.8708 54.1147 16.2411 52.7444 17.6788C51.3292 16.6904 49.0604 14.7361 49.0604 14.7361C49.0604 14.7361 47.6003 15.8143 46.8365 16.3534C43.7141 15.5897 41.2656 14.4665 38.9069 13.4107C40.0076 11.9955 40.9286 10.8049 41.9619 9.4796Z" fill="#57689F"/>
<path d="M48.2741 19.094C40.7713 17.8135 34.6837 14.8259 29.1801 10.8274C24.1034 15.2752 17.881 17.544 10.9173 19.0715C10.468 19.1613 10.4231 20.8686 10.6028 23.0475H48.2517C48.2966 21.7671 48.319 20.4418 48.2741 19.094Z" fill="#68696B"/>
<path d="M29.2923 52.8791C36.0538 49.869 39.6031 48.1393 42.8153 44.3879C43.8037 43.2198 44.7023 41.8271 45.3762 40.4343H13.5679C16.6678 46.2299 22.6431 49.6219 29.2923 52.8791Z" fill="#68696B"/>
<path d="M56.5407 43.8713C56.8776 43.8713 57.1921 43.9837 57.4392 44.2083C57.7088 44.4329 57.8436 44.68 57.8436 44.972C57.8436 45.2641 57.7088 45.5112 57.4392 45.7358C57.1697 45.9604 56.8776 46.0728 56.5407 46.0728C56.2037 46.0728 55.8892 45.9604 55.6421 45.7358C55.395 45.5112 55.2378 45.2641 55.2378 44.972C55.2378 44.68 55.3726 44.4329 55.6421 44.2083C55.8892 43.9837 56.2037 43.8713 56.5407 43.8713Z" fill="#68696B"/>
<path d="M66.0877 43.1974C66.3797 43.5118 66.5145 43.8488 66.5145 44.1858C66.5145 44.8147 66.2 45.3089 65.5935 45.6908C64.987 46.0727 64.1783 46.2524 63.1675 46.2524C62.0892 46.2524 61.1457 45.9604 60.3595 45.3988C59.5733 44.8372 59.1689 44.1633 59.1689 43.3995C59.1689 42.5235 59.5733 41.7822 60.4044 41.1756C61.2356 40.5691 62.224 40.2546 63.3696 40.2546C64.1783 40.2546 64.8971 40.4119 65.5037 40.7488C66.1102 41.0858 66.4022 41.4677 66.4022 41.9169C66.4022 42.5459 66.0203 42.8379 65.2566 42.8379C65.0544 42.8379 64.8073 42.793 64.5153 42.7256C64.5602 42.5235 64.5826 42.3662 64.5826 42.2314C64.5826 41.9619 64.4703 41.7597 64.2232 41.58C63.9761 41.4003 63.6841 41.3329 63.3472 41.3329C62.3363 41.3329 61.8196 41.9843 61.8196 43.2647C61.8196 44.4553 62.4486 45.0394 63.7066 45.0394C65.3239 45.0394 66.0877 44.4329 66.0877 43.1974Z" fill="#68696B"/>
<path d="M71.6812 40.2546C72.7369 40.2546 73.6804 40.5691 74.4891 41.1981C75.2978 41.8271 75.7021 42.5459 75.7021 43.3771C75.7021 44.1633 75.2978 44.8372 74.4891 45.3988C73.6804 45.9604 72.7145 46.2299 71.5913 46.2299C70.4457 46.2299 69.4797 45.9379 68.671 45.3538C67.8624 44.7698 67.458 44.051 67.458 43.2423C67.458 42.4111 67.8624 41.7148 68.6935 41.1307C69.5247 40.5467 70.513 40.2546 71.6812 40.2546ZM71.5464 41.3778C70.6029 41.3778 70.1312 42.0068 70.1312 43.2872C70.1312 44.5002 70.6029 45.1068 71.5688 45.1068C72.5123 45.1068 72.9616 44.5002 72.9616 43.3097C72.984 42.0293 72.5123 41.3778 71.5464 41.3778Z" fill="#68696B"/>
<path d="M80.3745 40.4343V41.9169C80.9585 40.8387 81.7448 40.2996 82.7781 40.2996C83.9462 40.2996 84.7099 40.8612 85.0469 41.9619C85.4962 40.8387 86.2824 40.2771 87.4056 40.2771C88.1918 40.2771 88.7983 40.4793 89.2026 40.8836C89.6295 41.288 89.8316 41.872 89.8316 42.6358V44.5227L91.7186 45.9379H86.3273L87.3606 44.7698V42.7705C87.3606 42.0966 87.0461 41.7597 86.4172 41.7597C86.0578 41.7597 85.7433 41.9169 85.4962 42.209C85.2491 42.501 85.1367 42.8829 85.1367 43.3321V44.7698L86.1701 45.9379H81.61L82.6433 44.7698V42.9278C82.6433 42.164 82.3513 41.7597 81.7672 41.7597C81.3629 41.7597 81.0484 41.8945 80.8013 42.1865C80.5542 42.4785 80.4419 42.8379 80.4419 43.3097V44.7473L81.4752 45.9154H76.2861L77.9709 44.5002V41.9394L76.2861 40.5242L80.3745 40.4343Z" fill="#68696B"/>
</g>
<defs>
<clipPath id="clip0">
<rect width="91.7409" height="60" fill="white"/>
</clipPath>
</defs>
</svg>

<svg width="92" height="60" fill="none" xmlns="http://www.w3.org/2000/svg"><g clip-path="url(#clip0)"><path d="M19.274 25.249v5.84c-1.303-2.493-3.28-3.75-5.93-3.75-2.651 0-3.977 1.46-3.977 4.38 0 1.46.36 2.515 1.078 3.167.72.651 1.865.966 3.46.966 1.505 0 2.763-.36 3.774-1.078 1.01-.72 1.482-1.595 1.437-2.629 0-.045 0-.09-.022-.18.427.36.651.877.651 1.528 0 1.505-.629 2.718-1.887 3.662-1.258.943-2.897 1.392-4.964 1.392-2.359 0-4.38-.651-6.088-1.931-1.707-1.28-2.56-2.808-2.56-4.583 0-1.797.853-3.414 2.56-4.852 1.708-1.438 3.662-2.134 5.841-2.134 1.887 0 3.55.517 4.987 1.572l1.64-1.37zm9.973-.202c2.134 0 3.999.696 5.594 2.089 1.572 1.393 2.359 3.055 2.359 4.942 0 1.752-.787 3.28-2.382 4.56-1.594 1.28-3.481 1.91-5.66 1.91-2.157 0-4.044-.652-5.661-1.932-1.617-1.303-2.449-2.786-2.449-4.493 0-1.932.809-3.594 2.426-4.987 1.618-1.393 3.55-2.09 5.773-2.09zm-.112 2.156c-.876 0-1.595.427-2.156 1.258-.562.854-.831 1.932-.831 3.258 0 1.325.27 2.38.808 3.19.54.808 1.28 1.19 2.18 1.19.898 0 1.639-.404 2.178-1.19.54-.787.809-1.865.809-3.19 0-1.326-.27-2.404-.831-3.258-.562-.83-1.28-1.258-2.157-1.258zm20.846-1.729l-2.022 2.268 3.55 7.279 3.212 2.92H44.028l2.943-2.561-.382-.854h-4.874l-.382.854 2.56 2.56h-7.907l2.494-2.92 3.482-7.278-1.977-2.268h9.996zm-5.953 3.616l-1.505 3.37h3.1l-1.595-3.37z" fill="#57689F"/><path d="M54.676 25.474h11.142c1.28 0 2.269.134 2.988.404.719.27 1.438.741 2.134 1.46 1.348 1.37 2.022 2.898 2.022 4.583 0 1.774-.697 3.234-2.067 4.358-1.37 1.123-3.167 1.684-5.369 1.684h-10.85l3.1-2.875v-6.672l-3.1-2.942zm7.48 9.996h2.09c1.46 0 2.448-.225 2.92-.697.472-.471.719-1.415.719-2.852 0-2.83-1.19-4.246-3.594-4.246h-2.134v7.795zm11.929-9.996h12.354c1.348 0 2.427.292 3.28.898.831.607 1.258 1.393 1.258 2.359 0 1.415-1.236 2.336-3.729 2.763 2.898.539 4.358 1.685 4.358 3.414 0 2.022-1.73 3.033-5.167 3.033H74.107l3.1-2.853v-6.694l-3.122-2.92zm7.48 4.897h3.55c.965 0 1.437-.427 1.437-1.28 0-.944-.495-1.416-1.46-1.416h-3.505v2.696h-.022zm0 5.346h3.504c1.168 0 1.752-.45 1.752-1.37 0-1.011-.427-1.505-1.303-1.505h-3.93v2.875h-.023z" fill="#68696B"/><path d="M39.064 51.554c4.785 5.211 8.244 6.581 14.803 8.423-1.258-5.84-2.336-11.321-7.412-14.96-.135.18-.72.876-.854 1.033-1.82 2.134-3.999 4.044-6.537 5.504zm-26.013-6.2c-.045-.023-.09-.023-.135-.045-4.74 3.886-6.424 9.075-8.041 14.669 6.694-1.977 11.613-4.291 15.634-8.245-2.875-1.752-5.301-3.908-7.458-6.38zM16.78 9.48c1.55-.832 2.83-1.505 4.38-2.337a692.57 692.57 0 00-3.773-3.998l-4.673 3.819C10.513 5.167 8.29 3.347 8.177 0 5.66 1.617 3.145 3.257 0 5.279c4.65.54 5.998 3.032 7.772 5.818-2.021.876-3.796 1.662-5.683 2.471 1.236 1.303 2.56 2.673 3.931 4.11 1.415-.988 3.684-2.942 3.684-2.942s1.46 1.078 2.224 1.617c3.122-.763 5.571-1.887 7.93-2.942-1.101-1.415-2.044-2.606-3.078-3.931zm25.182 0c-1.55-.832-2.83-1.505-4.38-2.337 1.302-1.392 2.515-2.65 3.796-3.998l4.672 3.819C48.252 5.167 50.476 3.347 50.588 0c2.516 1.617 5.032 3.257 8.154 5.279-4.627.54-5.975 3.032-7.75 5.818 2.022.876 3.797 1.662 5.684 2.471-1.236 1.303-2.561 2.673-3.932 4.11-1.415-.988-3.684-2.942-3.684-2.942s-1.46 1.078-2.224 1.617c-3.122-.763-5.57-1.887-7.93-2.942 1.102-1.415 2.023-2.606 3.056-3.931z" fill="#57689F"/><path d="M48.274 19.094c-7.503-1.28-13.59-4.268-19.094-8.267-5.077 4.448-11.299 6.717-18.263 8.245-.449.09-.494 1.797-.314 3.976h37.649c.045-1.28.067-2.606.022-3.954zM29.292 52.88c6.762-3.011 10.311-4.74 13.523-8.492a19.228 19.228 0 002.561-3.954H13.568c3.1 5.796 9.075 9.188 15.724 12.445zm27.248-9.009c.338 0 .652.113.9.337.269.225.404.472.404.764 0 .292-.135.54-.405.764-.27.224-.561.337-.898.337-.337 0-.652-.113-.899-.337-.247-.225-.404-.472-.404-.764 0-.292.135-.54.404-.764.247-.224.562-.337.899-.337zm9.548-.674c.292.315.427.652.427.989 0 .629-.315 1.123-.921 1.505-.607.382-1.416.561-2.426.561-1.079 0-2.022-.292-2.809-.853-.786-.562-1.19-1.236-1.19-2 0-.876.404-1.617 1.235-2.223.832-.607 1.82-.921 2.966-.921.808 0 1.527.157 2.134.494.606.337.898.719.898 1.168 0 .629-.382.92-1.145.92a3.51 3.51 0 01-.742-.111 2.32 2.32 0 00.068-.495c0-.27-.113-.471-.36-.651-.247-.18-.539-.247-.876-.247-1.01 0-1.527.651-1.527 1.932 0 1.19.629 1.774 1.887 1.774 1.617 0 2.38-.606 2.38-1.842zm5.593-2.942c1.056 0 2 .314 2.808.943.809.63 1.213 1.348 1.213 2.18 0 .785-.404 1.46-1.213 2.02-.809.562-1.775.832-2.898.832-1.145 0-2.111-.292-2.92-.876-.809-.584-1.213-1.303-1.213-2.112 0-.83.404-1.527 1.236-2.111.83-.584 1.819-.876 2.987-.876zm-.135 1.123c-.943 0-1.415.629-1.415 1.91 0 1.212.472 1.819 1.438 1.819.943 0 1.393-.607 1.393-1.797.022-1.28-.45-1.932-1.416-1.932zm8.828-.944v1.483c.585-1.078 1.37-1.617 2.404-1.617 1.168 0 1.932.561 2.269 1.662.45-1.123 1.235-1.685 2.359-1.685.786 0 1.392.202 1.797.607.426.404.629.988.629 1.752v1.887l1.887 1.415h-5.392l1.034-1.168v-2c0-.673-.315-1.01-.944-1.01-.36 0-.674.157-.92.449-.248.292-.36.674-.36 1.123v1.438l1.033 1.168h-4.56l1.033-1.168v-1.842c0-.764-.292-1.168-.876-1.168-.404 0-.719.135-.966.427-.247.291-.36.65-.36 1.123v1.437l1.034 1.168h-5.189l1.685-1.415v-2.56l-1.685-1.416 4.088-.09z" fill="#68696B"/></g><defs><clipPath id="clip0"><path fill="#fff" d="M0 0h91.741v60H0z"/></clipPath></defs></svg>
